X: 14582
T: Gan Ainm
R: barndance
M: 4/4
K: Dmajor
A>FA>f A2 G>A|B>AB>g B2 A>B|c>Bc>B A>AB>A|F2 F>G F2 (3EFG|
A>FA>f A2 G>A|B>AB>g B2 A>B|c>Bc>B A>gf>e|d2 d>e d2:|
e>de>f g>fe>c|d>cd>e f2d>c|B>AB>c d>cd>f|e2e>f e2F>G|
A>FA>f A2 G>A|B>AB>g B2 A>B|c>Bc>B A>gf>e|d2 d>e d2:|
A>FA>f A2 ^G>A|B>GB>g B3 d|c2 c>B A>B (3cBA|F>DF>B A2 F>G|
A2 (3Adf (3ABA ^G>A|B>G (3Bcg B2 e>d|c>ec>B A2 (3gfe|d2 (3ABA D2:|
e>^de>f g>ec>e|d>cd>e f2 d>c|B>^AB>c d>c (3def|(3efe (3dcB A2 F>G|
A>FA>f A2 ^G>A|B>^AB>g (3BcB e>d|c2 (3ecB A>g (3gfe|d2 A2 d2:|

